app/[lang]/(home)/(new-home)/assets/stacks-appicons/ubuntu.svg

<svg width="24" height="24" viewBox="0 0 24 24" fill="none" xmlns="http://www.w3.org/2000/svg">
<g clip-path="url(#clip0_77_1074)">
<path d="M23.3396 12.1595C23.3396 18.4348 18.2522 23.5223 11.9765 23.5223C5.70062 23.5223 0.613342 18.4348 0.613342 12.1595C0.613342 5.88375 5.7008 0.796387 11.9765 0.796387C18.2523 0.796387 23.3396 5.88375 23.3396 12.1595Z" fill="#DD4814"/>
<path d="M4.24984 10.6403C3.4116 10.6403 2.73248 11.3194 2.73248 12.1577C2.73248 12.9955 3.4116 13.6747 4.24984 13.6747C5.08772 13.6747 5.76684 12.9955 5.76684 12.1577C5.76684 11.3194 5.08772 10.6403 4.24984 10.6403ZM15.0818 17.5354C14.3562 17.9546 14.1073 18.8819 14.5265 19.6071C14.9452 20.3328 15.8725 20.5815 16.5982 20.1625C17.3237 19.7438 17.5726 18.8164 17.1535 18.0907C16.7348 17.3656 15.8069 17.1168 15.0818 17.5354ZM7.54521 12.1577C7.54521 10.6585 8.28992 9.33389 9.42932 8.53187L8.32018 6.6742C6.99291 7.56148 6.00525 8.91722 5.59481 10.5051C6.07378 10.8958 6.38028 11.4908 6.38028 12.1576C6.38028 12.8241 6.07378 13.419 5.59481 13.8098C6.00472 15.3981 6.99238 16.754 8.32018 17.6413L9.42932 15.7831C8.28992 14.9815 7.54521 13.657 7.54521 12.1577ZM11.9764 7.72603C14.2914 7.72603 16.1908 9.50093 16.3901 11.7646L18.5518 11.7327C18.4455 10.0616 17.7154 8.56133 16.5937 7.45816C16.0169 7.6761 15.3505 7.64273 14.7747 7.31078C14.1977 6.97785 13.836 6.41621 13.7371 5.8066C13.1636 5.6479 12.5714 5.56737 11.9763 5.5672C10.9632 5.56617 9.96355 5.79958 9.05563 6.24917L10.1098 8.13825C10.6944 7.86613 11.3316 7.72543 11.9764 7.72603ZM11.9764 16.589C11.3316 16.5896 10.6945 16.4489 10.1099 16.1768L9.05572 18.0657C9.96353 18.5158 10.9633 18.7494 11.9765 18.7483C12.5715 18.7482 13.1638 18.6675 13.7372 18.5083C13.8361 17.8987 14.1979 17.3376 14.7747 17.0041C15.351 16.6716 16.017 16.6388 16.5937 16.8568C17.7155 15.7536 18.4455 14.2533 18.552 12.5822L16.3897 12.5503C16.1908 14.8146 14.2915 16.5889 11.9764 16.5889V16.589ZM15.0813 6.77904C15.8069 7.19803 16.7343 6.94991 17.153 6.22425C17.5721 5.49859 17.3238 4.57118 16.5982 4.15201C15.8725 3.73338 14.9452 3.98203 14.5259 4.70769C14.1074 5.433 14.3561 6.36032 15.0813 6.77904Z" fill="white"/>
</g>
<defs>
<clipPath id="clip0_77_1074">
<rect width="22.7826" height="22.7826" fill="white" transform="translate(0.588928 0.796387)"/>
</clipPath>
</defs>
</svg>

<svg xmlns="http://www.w3.org/2000/svg" fill="none" viewBox="0 0 24 24">
  <g clip-path="url(#a)">
    <path
      fill="#DD4814"
      d="M23.34 12.16a11.36 11.36 0 1 1-22.73 0 11.36 11.36 0 0 1 22.73 0Z"
    />
    <path
      fill="#fff"
      d="M4.25 10.64a1.52 1.52 0 1 0 0 3.03 1.52 1.52 0 0 0 0-3.03Zm10.83 6.9a1.52 1.52 0 1 0 1.52 2.62 1.52 1.52 0 0 0-1.52-2.62Zm-7.53-5.38c0-1.5.74-2.83 1.88-3.63L8.32 6.67a6.6 6.6 0 0 0-2.73 3.84 2.13 2.13 0 0 1 0 3.3 6.6 6.6 0 0 0 2.73 3.83l1.1-1.86a4.42 4.42 0 0 1-1.87-3.62Zm4.43-4.43a4.43 4.43 0 0 1 4.41 4.03l2.16-.03a6.57 6.57 0 0 0-1.96-4.27 2.13 2.13 0 0 1-2.85-1.65 6.6 6.6 0 0 0-4.68.44l1.05 1.89a4.41 4.41 0 0 1 1.87-.41Zm0 8.86c-.65 0-1.29-.14-1.87-.41l-1.05 1.89a6.56 6.56 0 0 0 4.68.44 2.13 2.13 0 0 1 2.85-1.65 6.57 6.57 0 0 0 1.96-4.28l-2.16-.03a4.43 4.43 0 0 1-4.41 4.04Zm3.1-9.81a1.52 1.52 0 1 0 1.52-2.63 1.52 1.52 0 0 0-1.52 2.63Z"
    />
  </g>
  <defs>
    <clipPath id="a"><path fill="#fff" d="M.59.8h22.78v22.78H.59z" /></clipPath>
  </defs>
</svg>
